X:1
T:Title
%%score { ( 1 3 ) | 2 }
L:1/8
M:6/8
K:Bb
V:1 treble nm="Grand Piano"
V:3 treble 
V:2 bass 
V:1
 z3 z2[Q:1/4=100] [DF] | [DF][EG][DF] FGA | [DB]3 [DB]2 [DFB] | ABc cde |[M:5/8] [Fd]-[Fd]- [Fd]3 | %5
[M:1/8] [Fd] |[M:3/4] dc B[Gd] [CGc][_DGB] | [DFB]3 [CFA]2 [CFc] | [Fc][FA] [CF][FA] [=Ec][EG] | %9
[M:5/8] F-F- F3 |[M:1/8] [DF] |[M:3/4] [DB]>[DB] [DB][EB] [FA][EG] | [DF]3 [B,D]2 [DF] | %13
 B>B B[=EB] [Ec][Ed] |[M:5/8] c-c- c3 |[M:1/8] d |[M:3/4] fe d[Fe] [Fd][Gc] | [Gc]3 [EG]2 [GB] | %18
 AB cF GA |[M:5/8] [DB]-[DB]- [DB]3 |] %20
V:2
 z3 z2 [B,,B,] | [B,,B,][B,,B,][B,,B,] [F,A,E][G,B,E][F,CE] | [B,,B,]3 [B,,B,]2 B,, | %3
 [F,CF][F,DF][F,EF] [F,A,F][F,B,F][F,CF] |[M:5/8] [B,,B,]-[B,,B,]- [B,,B,]3 |[M:1/8] [B,,B,] | %6
[M:3/4][K:treble] [G,B,G][G,A,G][K:bass] [G,D][E,B,] E,=E, | F,3 F,2 A,, | %8
 [C,A,][C,C] [C,A,][C,C] [C,C][C,B,] |[M:5/8] [F,A,]-[F,A,]- [F,A,]3 |[M:1/8] [B,,B,] | %11
[M:3/4] [B,,F,]>[B,,F,] [B,,F,][E,G,] [E,A,][E,B,] | [B,,B,]3 [B,,F,]2 [B,,B,] | %13
 [G,B,D]>[G,B,D] [G,B,D][C,B,] [C,B,][C,B,] |[M:5/8][K:treble] [F,A,F]-[F,A,F]- [F,A,F]3 | %15
[M:1/8] [B,F] |[M:3/4] [B,DF][B,CF] [B,F][K:bass][C,A,] [D,B,][E,E] | [E,E]3 [E,C]2 [=E,C] | %18
 [F,CF][F,B,E] [F,A,E][F,A,E] [F,B,E][F,CE] |[M:5/8] [B,,B,]-[B,,B,]- [B,,B,]3 |] %20
V:3
 x6 | x6 | x6 | x6 |[M:5/8] x5 |[M:1/8] x |[M:3/4] x6 | x6 | x6 |[M:5/8] z z2 E2 |[M:1/8] x | %11
[M:3/4] x6 | x6 | x6 |[M:5/8] x5 |[M:1/8] x |[M:3/4] x6 | x6 | x6 |[M:5/8] x5 |] %20

